X:60
T: Tribute to Paddy Fahey
C: P. Varlet
Z: B.Black
R: reel
M: 4/4
L: 1/8
K: C
DGGA _BGAG | FDCD FEFG | Acde fedg | ec-c2 Gcec |
dg-g2 dgBd | cAFA c2 Bc | dBcA DEFA |1 dcAc BGGF :|2\
dcAc BGBd ||
g2 dc (3Bcd ge | fefg afdf | ec c2 Gceg |^fgaf g3 a |
_bggf gfdg | fdcA FGAc | dBcA DEFA |1\
dcAc BGBd :|2 dcAc BGGF ||
